X:1
T:Emitte spiritum tuum - Webbe
T:#
%%score { 1 | 2 } 3 4 { ( 5 6 ) | ( 7 8 ) }
L:1/8
Q:1/4=90
M:4/4
K:A
V:1 treble nm="Soprano" snm="S"
V:2 treble 
V:3 treble-8 nm="Tenor" snm="T"
V:4 bass nm="Bass" snm="B"
V:5 treble nm="Organ"
V:6 treble 
V:7 bass 
V:8 bass 
V:1
"^andante""^Gradual for Pentecost""^Emitte spiritum tuum""^Samuel Webbe\n(1740-1816)" A2 | %1
w: E-|
 A2 c2 e2 dc | c2 B2 z2 B2 | B2 d2 d2 cB | c2 c2 z eee |[M:4/4] e2 f2 z ddd | d2 e2 z ccB | %7
w: mit- te spi- ri- tum|tu- um, e-|mit- te spi- ri- tum|tu- um, et cre- a-|bun- tur, et cre- a-|bun- tur et re- no-|
 A2 (Bc) d2 c2 | c2 B2 B2 cd | d2 c2 z ccc | d2 c2 B2 BB | c2 c2 z ccc | d2 c2 B2 BB | c2 c2 z4 | %14
w: va- bis * fa- ciem|ter- rae, fa- ci- em|ter- rae, et re- no-|va- bis fa- ci- em|ter- rae, et re- no-|va- bis fa- ci- em|ter- rae.|
 z8 | z4 z2!mf! c2 | c2 c2 ^d2 dd | e2 B2 z2 B2 | c2 c2 z2 c2 | B2 B2 z2 B2 | A2 A2 A2 GG | %21
w: |E-|mit- te spi- ri- tum|tu- um, e-|mit- te, e-|mit- te, e-|mit- te spi- ri- tum|
 G2 F2 z4 | z8 | z4!f! e2 ee | e2 e2 e2 ^dd | e2 e2 z4 | z8 | z8 | z4 z2 e2 | e2 d2 d2 cB | %30
w: tu- um,||et re- no-|va- bis fa- ci- em|ter- rae,|||e-|mit- te spi- ri- tum|
 c2 c2 z cde | f2 e2 d2 cc | cBee e2 d2 | d2 cc TB4 | c8 ||!f!"^allegro"[Q:1/4=120] A3 A A2 B2 | %36
w: tu- um et re- no-|va- bis fa- ci- em|ter- rae, re- no- va- bis|fa- ci- em ter-|rae.|Al- le- lu- ja,|
 c3 c c2 d2 | (e2 c2) (d2 B2) | c4 c4 | c2 f2 ^d2 d2 | e3 e e2 f2 | %41
w: al- le- lu- ja,|al\- * le\- *|lu- ja,|al- le- lu- ja,|al- le- lu- ja,|
[Q:1/4=120][Q:1/4=120][Q:1/4=120][Q:1/4=120] e4 ^d4 | e4 e4 |!p! A3 G F2 A2 | d3 c B2 B2 | %45
w: al- le-|lu- ja,|al- le- lu- ja,|al- le- lu- ja,|
 e3 d c2 d2 | c2 B2 c2 c2 |!f! A3 G F2 A2 | d3 c B2 B2 | e3 d c2 d2 | %50
w: al- le- lu- ja,|al- le- lu- ja,|al- le- lu- ja,|al- le- lu- ja,|al- le- lu- ja,|
 c2 B2 c2[Q:1/4=60] !fermata!c2 ||[K:F][M:3/4]!pp!"^slow, with feeling"[Q:1/4=80] A4!<(! A2 | %52
w: al- le- lu- ja.|Ve- ni,|
 (A2 e2)!<)! d2 |[M:3/4][Q:1/4=80][Q:1/4=80][Q:1/4=80][Q:1/4=80]!>(! d4 B2!>)! | G6 | %55
w: san\- * cte|spi- ri-|tus,|
!<(! G2 A2!<)! B2 | c4 A2 | F2 D2 G2 | !>!F3 F E2 | z2 (F2 A2) | c2 c2 c2 | d6 | c6 | %63
w: re- ple tu-|o- rum|cor- da fi-|de- li- um:|et *|tu- i a-|mo-|ris|
"^cresc." =B2 B2 B2 | c2 d2 e2 | (e4 d2) | c6 |!f!"^rall."[Q:1/4=72] c2 c2 c2 | _A2 G2 F2 | %69
w: in e- is|i- gnem ac-|cen\- *|de,|in e- is|i- gnem ac-|
 !fermata!c6 | !fermata!C6 |] %71
w: cen-|do.|
V:2
 A2 | A2 A2 c2 BA | A2 G2 z2 G2 | G2 B2 B2 AG | A2 A2 z ccc |[M:4/4] c2 d2 z BBB | B2 c2 z AAG | %7
w: E-|mit- te spi- ri- tum|tu- um, e-|mit- te spi- ri- tum|tu- um, et cre- a-|bun- tur, et cre- a-|bun- tur et re- no-|
 F2 (GA) B2 A2 | A2 G2 G2 AB | B2 A2 z AAA | A2 A2 A2 GG | A2 A2 z AAA | A2 A2 A2 GG | A2 A2 z4 | %14
w: va- bis * fa- ciem|ter- rae, fa- ci- em|ter- rae, et re- no-|va- bis fa- ci- em|ter- rae, et re- no-|va- bis fa- ci- em|ter- rae.|
 z8 | z8 | z8 | z8 | z8 | z8 | z8 | z4!f! E2 GA | B2 B2 z Bc^d | e2 E2 z EFG | A2 G2 F2 FF | %25
w: |||||||et cre- a-|bun- tur, et cre- a-|bun- tur, et re- no-|va- bis fa- ci- em|
 G2 G2 z4 | z8 | z8 | z4 z2 c2 | c2 B2 B2 AG | A2 A2 z AAc | d2 c2 B2 AA | AGGG A2 A2 | %33
w: ter- rae,|||e-|mit- te spi- ri- tum|tu- um et re- no-|va- bis fa- ci- em|ter- rae, re- no- va- bis|
 G2 AA (A2 TG2) | A8 ||!f! A3 A A2 G2 | A3 A A2 B2 | (c2 A2) (B2 G2) | A4 A4 | A3 A A2 F2 | %40
w: fa- ci- em ter\- *|rae.|Al- le- lu- ja,|al- le- lu- ja,|al\- * le\- *|lu- ja,|al- le- lu- ja,|
 G3 A B2 A2 | G4 F4 | E4 E4 |!p! E3 E F2 F2 | B3 A G2 G2 | c3 B A2 B2 | A2 G2 A2 A2 | %47
w: al- le- lu- ja,|al- le-|lu- ja,|al- le- lu- ja,|al- le- lu- ja,|al- le- lu- ja,|al- le- lu- ja,|
!f! E3 E F2 F2 | B3 A G2 G2 | c3 B A2 B2 | A2 G2 A2 !fermata!A2 ||[K:F][M:3/4]!pp! C4 ^C2 | D4 D2 | %53
w: al- le- lu- ja,|al- le- lu- ja,|al- le- lu- ja,|al- le- lu- ja.|Ve- ni,|san- cte|
[M:3/4]!>(! D4 D2!>)! | E6 |!<(! E2 F2!<)! G2 | A4 F2 | F2 D2 D2 | !>!C3 C C2 | z2 F4 | G2 E2 F2 | %61
w: spi- ri-|tus,|re- ple tu-|o- rum|cor- da fi-|de- li- um:|et|tu- i a-|
 F6 | F6 |"^cresc." F2 F2 F2 | E2 A2 A2 | (G4 F2) | E6 |!f!"^rall." c2 c2 c2 | _A2 G2 F2 | %69
w: mo-|ris|in e- is|i- gnem ac-|cen\- *|de,|in e- is|i- gnem ac-|
 !fermata!c6 | !fermata!C6 |] %71
w: cen-|do.|
V:3
 c2 | c2 e2 e2 ff | e2 e2 z2 e2 | e2 G2 G2 ee | e2 A2 z2 z2 |[M:4/4][K:treble-8] z AAA d2 d2 | %6
w: E-|mit- te spi- ri- tum|tu- um, e-|mit- te spi- ri- tum|tu- um,|et cre- a- bun- tur,|
 z AAA e2 e2 | z fff f4 | e4 e2 ee | e2 e2 z eee | d2 e2 f2 ee | e2 A2 z eee | d2 e2 f2 ee | %13
w: et cre- a- bun- tur|et re- no- va-|bis fa- ci- em|ter- rae, et re- no-|va- bis fa- ci- em|ter- rae, et re- no-|va- bis fa- ci- em|
 e2 A2 z4 | z8 | z8 | z2!mf! c2 B2 A2 | z2 e2 B2 e2 | z2 e2 c2 e2 | z2 e2 B2 e2 | e>e e2 ^d2 ee | %21
w: ter- rae.|||E- mit- te|e- mit- te,|e- mit- te,|e- mit- te|spi- ri- tum, spi- ri- tum|
 e2 ^d2 z4 |!f! B2 ^de f2 f2 | z Bc^d e2 B2 | z ABB ccBB | B2 B2 z4 | z8 | z8 | z!mf! edc cc A2 | %29
w: tu- um,|et cre- a- bun- tur,|et cre- a- bun- tur,|et re- no- va- bis fa- ciem|ter- rae,|||e- mit- te spi- ri- tum|
 e8 | e4 z4 | z AAA B2 (cf) | e2 B2 f2 f2 | e2 ec d4 | c8 ||!f! c3 c c2 e2 | e3 e e2 e2 | e4 e4 | %38
w: tu-|um|et re- no- va- bis, *|re- no- va- bis|fa- ci- em ter-|rae.|Al- le- lu- ja,|al- le- lu- ja,|al- le-|
 e4 A4 | c2 c2 B2 B2 | B3 A G2 c2 | B4 A4 | G4 G4 |!p! A3 A A2 A2 | B3 B B2 B2 | c3 c c2 f2 | %46
w: lu- ja,|al- le- lu- ja,|al- le- lu- ja,|al- le-|lu- ja,|al- le- lu- ja,|al- le- lu- ja,|al- le- lu- ja,|
 e2 e2 e2 e2 |!f! A3 A A2 A2 | B3 B B2 B2 | c3 c c2 f2 | e2 e2 e2 !fermata!e2 || %51
w: al- le- lu- ja,|al- le- lu- ja,|al- le- lu- ja,|al- le- lu- ja,|al- le- lu- ja.|
[K:F][M:3/4]!pp! A4!<(! G2 | F4!<)! F2 |[M:3/4][K:treble-8]!>(! (F2 ^F2) G2!>)! | G6 | z6 | %56
w: Ve- ni,|san- cte|spi\- * ri-|tus,||
 (A2 B2) c2 | d2 B2 B2 | !>!A3 G G2 | (A4 c2) | c2 G2 A2 | A6 | A6 |"^cresc." d2 d2 d2 | c2 c2 c2 | %65
w: cor\- * da,|cor- da fi-|de- li- um:|et *|tu- i a-|mo-|ris|in e- is|i- gnem ac-|
 (c2 =B4) | c6 |!f!"^rall." c2 c2 c2 | _A2 G2 F2 | !fermata!c6 | !fermata!C6 |] %71
w: cen\- *|de,|in e- is|i- gnem ac-|cen-|do.|
V:4
 A,2 | A,2 A,2 A,2 D,D, | E,2 E,2 z2 E,2 | E,2 E,2 E,2 E,E, | A,2 A,,2 z A,A,A, | %5
w: E-|mit- te spi- ri- tum|tu- um, e-|mit- te spi- ri- tum|tu- um, et cre- a-|
[M:4/4] A,2 A,2 z A,A,A, | A,2 A,2 z A,,A,,A,, | D,2 (D,C,) B,,2 (C,D,) | E,2 E,2 E,2 E,E, | %9
w: bun- tur, et cre- a-|bun- tur et re- no-|va- bis * fa- ciem *|ter- rae, fa- ci- em|
 A,2 A,,2 z A,A,G, | F,2 E,2 D,2 E,E, | A,2 A,,2 z A,A,G, | F,2 E,2 D,2 E,E, | A,2 A,,2 z4 | z8 | %15
w: ter- rae, et re- no-|va- bis fa- ci- em|ter- rae, et re- no-|va- bis fa- ci- em|ter- rae.||
 z4 z2!mf! A,2 | A,2 A,2 F,2 F,F, | G,2 G,2 z2 G,2 | A,2 A,2 z2 G,2 | G,2 G,2 z2 G,2 | %20
w: E-|mit- te spi- ri- tum|tu- um, e-|mit- te, e-|mit- te, e-|
 F,2 F,2 F,2 E,E, | B,2 B,,2!f! E,2 E,E, | ^D,2 B,,2 B,2 A,A, | G,2 G,2 E,2 ^D,D, | %24
w: mit- te spi- ri- tum|tu- um, et cre- a-|bun- tur, et cre- a-|bun- tur, et re- no-|
 C,2 B,,2 A,,2 B,,B,, | E,2 E,2 z4 | z8 | z2!mf! E,2 E,2 =D,2 | C,2 B,,A,, E,4 | E,4 E,2 E,E, | %30
w: va- bis fa- ci- em|ter- rae,||e- mit- te|spi- ri- tum tu-|um, spi- ri- tum|
 A,,2 A,,2 (A,=G,)F,E, | D,2 D,2 D,2 D,D, | E,E,E,E, F,2 B,2 | E,2 A,A, E,4 | A,,8 || %35
w: tu- um et * re- no-|va- bis fa- ci- em|ter- rae, re- no- va- bis|fa- ci- em ter-|rae.|
!f! A,3 A, A,2 E,2 | A,3 A, A,2 A,2 | A,4 E,4 | A,4 A,4 | A,2 F,2 B,2 B,,2 | E,3 F, G,2 A,2 | %41
w: Al- le- lu- ja,|al- le- lu- ja,|al- le-|lu- ja,|al- le- lu- ja,|al- le- lu- ja,|
 B,4 B,,4 | E,4 E,4 |!p! C,3 C, D,2 D,2 | B,,3 B,, E,2 E,2 | C,3 C, F,2 D,2 | E,2 E,2 A,2 A,,2 | %47
w: al- le-|lu- ja,|al- le- lu- ja,|al- le- lu- ja,|al- le- lu- ja,|al- le- lu- ja,|
!f! C,3 C, D,2 D,2 | B,,3 B,, E,2 E,2 | C,3 C, F,2 D,2 | E,2 E,2 A,2 !fermata!A,,2 || %51
w: al- le- lu- ja,|al- le- lu- ja,|al- le- lu- ja,|al- le- lu- ja.|
[K:F][M:3/4]!pp! F,4!<(! E,2 | D,4!<)! D,2 |[M:3/4]!>(! B,,4 B,,2!>)! | C,6 | z6 | (F,2 G,2) A,2 | %57
w: Ve- ni,|san- cte|spi- ri-|tus,||cor\- * da,|
 B,2 B,,2 B,,2 | !>!C,3 C, C,2 | F,6 | E,2 C,2 F,2 | D,6 | F,6 |"^cresc." G,2 G,2 ^G,2 | %64
w: cor- da fi-|de- li- um:|et|tu- i a-|mo-|ris|in e- is|
 A,2 F,2 F,2 | G,6 | C,6 |!f!"^rall." C2 C2 C2 | _A,2 G,2 F,2 | !fermata!C6 | !fermata!C,6 |] %71
w: i- gnem ac-|cen-|de,|in e- is|i- gnem ac-|cen-|do.|
V:5
 [CEA]2 | [CEA]2 [EAc]2 [Ece]2 [Bd][Ac] | [EAc]2 [EGB]2 z2 [GB]2 | [GB]2 [Bd]2 [Bd]2 [Ac][GB] | %4
 [EAc]2 [EAc]2 z [ce][ce][ce] |[M:4/4] [ce]2 [df]2 z [Bd][Bd][Bd] | [Bd]2 [ce]2 z [Ac][Ac][GB] | %7
 [FA]2 ([GB][Ac] [Bd]2) [Ac]2 | [Ac]2 [GB]2 [GB]2 [Ac][Bd] | [Bd]2 [Ac]2 z [EAc][EAc][EAc] | %10
 [DAd]2 [EAc]2 [FAB]2 [EGB][EGB] | [EAc]2 [EAc]2 z [EAc][EAc][EAc] | %12
 [DAd]2 [EAc]2 [FAB]2 [EGB][EGB] | [EAc]2 [EAc]2 z (ecA) | (.G.F) Bc/d/ A2 TG2 | [CEA]4 z2 [EAc]2 | %16
 [EAc]2 [EAc]2 [AB^d]2 [ABd]2 | [EBe]2 [EB]2 z beB | c2 c2 z acA | e2 B2 z (beB) | %20
 (c2 e2) [B^da]2 [Beg][Beg] | [Beg]2 [B^df]2!f! E2 GA | [B,FB]2 [^DFB]2 z [DB][Ec][F^d] | %23
 [EBe]2 E2 e4 | [Ae]2 [Ge]2 [Fce]2 [FB^d]2 | [GBe]2 [GBe]2 z Bc^d | eB e4 ^d2 | [Ge]4 z4 | %28
 A,E[G,D][A,C] [A,C]EA[ce] | [ce]2 [Bd]2 [Bd]2 [Ac][GB] | [Ac]2 [Ac]2 z [EAc][DA][Ace] | %31
 [df]2 [ce]2 [Bd]2 [Ac][Ac] | [Ac][GB][Ge][Ge] [Ae]2 [Ad]2 | [EGd]2 [EAc][EAc] [DB]4 | [CEA]8 || %35
 [CEA]3 [CEA] [CEA]2 [EGB]2 | [Ac]3 [Ac] [Ac]2 [Bd]2 | [ce]2 [Ac]2 [Bd]2 [GB]2 | [EAc]4 [EAc]4 | %39
 [Ac]2 [Acf]2 [A^d]2 [FAd]2 | [EGe]3 [EAe] [EBe]2 [Acf]2 | [GBe]4 [FAB^d]4 | [EGBe]4 [EGBe]4 | %43
!p! [EA]3 [EG] [DF]2 [FA]2 | [DFBd]3 [Ac] [GB]2 [GB]2 | [EGce]3 [Bd] [FAc]2 [FBd]2 | %46
 [EAc]2 [EGB]2 [EAc]2 [EAc]2 | [EA]3 [EG] F2 [FA]2 | [DFBd]3 [Ac] [GB]2 [GB]2 | %49
 [EGce]3 [Bd] [FAc]2 [FBd]2 | [EAc]2 [EGB]2 [EAc]2 !fermata![EAc]2 || %51
[K:F][M:3/4] [CA]4!<(! [^CA]2 | (A2 e2)!<)! d2 |[M:3/4]!>(! d4 B2!>)! | [EG]6 | %55
!<(! ([EG]2 [FA]2!<)! [GB]2) | [Ac]4 [FA]2 | F2 D2 G2 | F4 E2 | z2 (F2 A2) | [Gc]2 [Ec]2 [Fc]2 | %61
 [Fd]6 | [Fc]6 |"^cresc." =B2 B2 B2 | [Ec]2 d2 e2 | [Ge]4 [Fd]2 | [Ec]6 | %67
"^rall."!f! [CE]2 [CF]2 [CG]2 | [C_A]2 [CG]2 [CF]2 | !fermata![G,CE]6 | !fermata![E,G,C]6 |] %71
V:6
 x2 | x6 F2 | x8 | E8 | x8 |[M:4/4] x8 | x8 | F8 | E4 E4 | E4 x4 | x8 | x8 | x8 | x8 | x2 F2 E4 | %15
 x8 | x8 | x8 | x8 | x8 | x8 | x8 | x8 | x8 | x8 | x8 | x8 | x8 | x8 | x4[I:staff +1] E,4 | %30
[I:staff -1] x8 | x8 | x4 F4 | x4 A2 G2 | x8 || x8 | E6 E2 | E4 E4 | x8 | x8 | x8 | x8 | x8 | x8 | %44
 x8 | x8 | x8 | x8 | x8 | x8 | x8 ||[K:F][M:3/4] x6 | D6 |[M:3/4] D6 | x6 | x6 | x6 | x2 D4 | %58
[I:staff +1] A,3 G, G,2 |[I:staff -1] x6 | x6 | x6 | x6 | [DF]6 | x2 A4 | x6 | x6 | x6 | x6 | x6 | %70
 x6 |] %71
V:7
 A,2 | A,4 A,,2 D,2 | E,4 E,,4 | E,8 | A,2 A,,2 A,4 |[M:4/4] A,2 A,,2 A,4 | A,2 A,,2 A,4 | %7
 D,2 D,C, B,,2 C,D, | E,2 E,,2 E,4 | A,2 A,,2 A,3 G, | F,2 E,2 D,2 E,E, | A,2 A,,2 A,3 G, | %12
 F,2 E,2 D,2 E,E, | A,2 A,,2 A,2 C2 | D2 [D,B,]2 [E,C]2- [E,B,]2 | A,2 A,,2 A,4 | A,2 A,,2 F,4 | %17
 G,2 G,,2 [G,B,E]4- | [A,CE]4 [A,CE]4- | [G,B,E]4 [G,B,]4 | [F,A,]2 z2 F,2 E,E, | B,2 B,,2 E,4 | %22
 ^D,2 B,,2 B,2 A,2 | G,2 G,2 E,2 ^D,2 | C,2 B,,2 A,,2 B,,2 | E,2 E,,2 (!>!B,2 A,2 | %26
 G,2) z G, A,2 B,2 | E,2!mf! E,2 E,2 [D,G,]2 | C,2 B,,A,, E,3 E, | E,4 E,2 E,,2 | %30
 A,,2 A,2 A,=G,F,E, | D,4 D,4 | E,2 E,E, F,2 B,,2 | E,2 A,,C, E,2- [E,,E,]2 | [A,,E,]8 || %35
!f! A,3 A, A,2 E,2 | A,3 A, A,2 A,,2 | A,4 E,4 | A,4 A,,4 | A,2 F,2 B,2 B,,2 | E,3 F, G,2 A,2 | %41
 B,4 [B,,B,]4 | [E,B,]4 [E,B,]4 | [C,A,]3 [C,A,] [D,A,]2 [D,A,]2 | %44
 [B,,B,]3 [B,,B,] [E,B,]2 [E,B,]2 | [C,C]3 [C,C] [F,C]2 D,2 | E,2 E,2 A,2 A,,2 | %47
 [C,A,]3 [C,A,] [D,A,]2 [D,A,]2 | [B,,B,]3 [B,,B,] [E,B,]2 [E,B,]2 | [C,C]3 [C,C] [F,C]2 D,2 | %50
 E,2 E,2 A,2 !fermata!A,,2 ||[K:F][M:3/4] ([F,A,]4 [E,G,]2 | [D,F,]6-) |[M:3/4] F,2 ^F,2 G,2 | %54
 [C,G,]6 | z6 | ([F,A,]2 [G,B,]2 [A,C]2) | x6 | x6 | x6 | x6 | x6 | x6 | x6 | C6 | C2 =B,4 | %66
 [C,C]6 | [C,,C,E,]2 [D,,C,F,]2 [E,,C,G,]2 | [F,,C,_A,]2 [G,,C,G,]2 [_A,,C,F,]2 | %69
 !fermata![C,,C,]6 | !fermata![C,,C,]6 |] %71
V:8
 x2 | x8 | x8 | x8 | x8 |[M:4/4] x8 | x8 | x8 | x8 | x8 | x8 | x8 | x8 | x8 | x8 | x8 | x8 | x8 | %18
 x8 | x8 | x8 | x8 | x8 | x8 | x8 | x8 | x8 | x8 | x8 | x8 | x8 | x8 | x8 | x8 | x8 || x8 | x8 | %37
 x8 | x8 | x8 | x8 | x8 | x8 | x8 | x8 | x8 | x8 | x8 | x8 | x8 | x8 ||[K:F][M:3/4] x6 | x6 | %53
[M:3/4] B,,6 | x6 | x6 | x6 | [B,D]2 [B,,B,]4 | [C,C]6 | [F,A,]4- [F,C]2 | [E,C]2 [C,G,]2 [F,A,]2 | %61
 [D,A,]6 | [F,A,]6 | G,4 ^G,2 | A,2 F,2 F,2 | G,6 | x6 | x6 | x6 | x6 | x6 |] %71

